X: 42553
T: When Kathryn Was Anna
R: reel
M: 4/4
K: Dmajor
d ~f3dfec|d ~ f3 gfed|c~A3 G3 B|d~G3 ~f3e|
dfef d3f|dfef gfed|c~A3 GBed|ceag fedc|
dfef dece|dfef gfed|c~A3G3A|d~G3 ~f3e|
dfef d3f|dfef gfed|c~A3 GBed|cAGE DFAd||
e3d cAAB|cedc Aceg|f2fa g2ga|f2fa gfed|
efed c~A3|cedc Aceg|f2df gfed|cAGE DFAd|
e3d cAAB|cedc Aceg|f2fa g2ga|f2fa gfed|
~e3d cAAB|cedc Aceg|fdad bged|cAGE (D4|D4)||

